material/.icons/material/subway-alert-variant.svg

<svg xmlns="http://www.w3.org/2000/svg" viewBox="0 0 24 24"><path d="M16 11V6h-5v5h5m-1.5 6a1.5 1.5 0 001.5-1.5 1.5 1.5 0 00-1.5-1.5 1.5 1.5 0 00-1.5 1.5 1.5 1.5 0 001.5 1.5M9 11V6H4v5h5m-3.5 6A1.5 1.5 0 007 15.5 1.5 1.5 0 005.5 14 1.5 1.5 0 004 15.5 1.5 1.5 0 005.5 17M10 2c4.42 0 8 .5 8 4v9.5a3.5 3.5 0 01-3.5 3.5l1.5 1.5v.5H4v-.5L5.5 19A3.5 3.5 0 012 15.5V6c0-3.5 3.58-4 8-4m10 10V7h2v5h-2m0 4v-2h2v2h-2z"/></svg>

<?xml version="1.0" encoding="UTF-8"?><!DOCTYPE svg PUBLIC "-//W3C//DTD SVG 1.1//EN" "http://www.w3.org/Graphics/SVG/1.1/DTD/svg11.dtd"><svg xmlns="http://www.w3.org/2000/svg" xmlns:xlink="http://www.w3.org/1999/xlink" version="1.1" id="mdi-subway-alert-variant" width="24" height="24" viewBox="0 0 24 24"><path d="M16,11V6H11V11H16M14.5,17A1.5,1.5 0 0,0 16,15.5A1.5,1.5 0 0,0 14.5,14A1.5,1.5 0 0,0 13,15.5A1.5,1.5 0 0,0 14.5,17M9,11V6H4V11H9M5.5,17A1.5,1.5 0 0,0 7,15.5A1.5,1.5 0 0,0 5.5,14A1.5,1.5 0 0,0 4,15.5A1.5,1.5 0 0,0 5.5,17M10,2C14.42,2 18,2.5 18,6V15.5A3.5,3.5 0 0,1 14.5,19L16,20.5V21H4V20.5L5.5,19A3.5,3.5 0 0,1 2,15.5V6C2,2.5 5.58,2 10,2M20,12V7H22V12H20M20,16V14H22V16H20Z" /></svg>
